svg/fluentui-system-icons/ic_fluent_dentist_20_regular.svg

<svg width="20" height="20" viewBox="0 0 20 20" fill="none" xmlns="http://www.w3.org/2000/svg">
<path d="M12.9353 5.59766C12.6592 5.59766 12.4353 5.82151 12.4353 6.09766C12.4353 6.3738 12.6592 6.59766 12.9353 6.59766C13.2261 6.59766 13.4734 6.68444 13.6535 6.84422C13.8298 7.00057 13.9868 7.26663 14.0274 7.71292C14.0524 7.98793 14.2956 8.1906 14.5706 8.1656C14.8456 8.1406 15.0483 7.8974 15.0232 7.62239C14.9638 6.96868 14.7158 6.44975 14.3171 6.09609C13.9222 5.74587 13.4245 5.59766 12.9353 5.59766ZM8.93971 3.9289C8.00361 3.17193 6.96488 3.01149 6.03447 3.19321C5.12009 3.3718 4.31221 3.87879 3.77723 4.45929C3.17424 5.11518 2.58236 5.94487 2.53568 7.15847L2.53563 7.15984C2.51418 7.76061 2.60316 8.6344 3.06791 9.28757L3.06966 9.29C3.68295 10.1411 3.99196 10.7648 4.11793 11.5771C4.15813 11.8364 4.18047 12.1205 4.18535 12.4436C4.19103 13.0878 4.32552 13.9729 4.65195 14.778C4.97439 15.5734 5.52469 16.3858 6.42231 16.7168L6.44416 16.7249L6.46666 16.7309C6.99116 16.8705 7.47882 16.8206 7.84683 16.4765C8.17104 16.1733 8.30602 15.7215 8.38181 15.3157C8.45193 14.9404 8.48694 14.5037 8.5213 14.075L8.53366 13.9216C8.57367 13.4307 8.61929 12.9412 8.71478 12.4798C8.98083 11.2067 9.36162 10.9829 9.53879 10.9296C10.0301 10.8025 10.3177 10.8887 10.5091 11.028C10.7871 11.2302 10.9997 11.6434 11.1465 12.2523C11.2894 12.8453 11.3463 13.5165 11.397 14.129C11.4688 14.9952 11.6517 15.7827 12.0002 16.287C12.181 16.5485 12.4375 16.7776 12.785 16.8519C13.1354 16.9269 13.4755 16.8225 13.7757 16.6283C14.8791 15.924 15.518 14.4606 15.6933 12.5227C15.7725 11.6519 15.8614 11.2285 15.9903 10.8945C16.0904 10.6353 16.2136 10.4255 16.4084 10.0934C16.4793 9.97269 16.5596 9.83572 16.6518 9.67439C16.6902 9.60704 16.7303 9.53618 16.7719 9.46131C17.0159 9.02531 17.4163 8.23176 17.4622 7.30106C17.5098 6.33511 17.1725 5.26778 16.0307 4.33969C14.9411 3.45409 13.9252 3.13279 13.0181 3.18218C12.1194 3.23112 11.4009 3.64004 10.8899 4.07806L10.8773 4.0889L10.8654 4.10055C10.3655 4.59032 10.1356 4.67818 9.9864 4.67188C9.81826 4.66479 9.54373 4.53408 8.98045 3.96573L8.96109 3.94619L8.93971 3.9289ZM4.5132 5.13631C4.91823 4.6969 5.54066 4.30856 6.22616 4.17467C6.88909 4.04519 7.61248 4.15129 8.2905 4.69011C8.82994 5.23176 9.34983 5.64591 9.94423 5.67099C10.5597 5.69697 11.0665 5.30185 11.5528 4.82702C11.9501 4.48972 12.4624 4.21392 13.0725 4.1807C13.6805 4.14759 14.4595 4.35129 15.3999 5.11569C16.2881 5.8376 16.4958 6.59526 16.4634 7.25182C16.4293 7.94325 16.1251 8.56944 15.899 8.97355L15.8984 8.97459C15.8587 9.04601 15.8204 9.11376 15.7835 9.17836C15.712 9.30342 15.6434 9.42019 15.578 9.53152C15.367 9.89061 15.1893 10.193 15.0575 10.5343C14.8773 11.0009 14.7788 11.5366 14.6973 12.4327C14.5327 14.2538 13.9522 15.3299 13.2366 15.786L13.2333 15.7882C13.0788 15.8883 13.0083 15.8771 12.9941 15.8741C12.9762 15.8702 12.9134 15.8494 12.8229 15.7184C12.6289 15.4377 12.4618 14.8702 12.3936 14.0464L12.3926 14.0339C12.3432 13.438 12.2816 12.6941 12.1186 12.018C11.9583 11.3531 11.675 10.6395 11.0975 10.2193C10.6119 9.86609 9.99763 9.77569 9.27869 9.96382L9.26654 9.96733C8.54133 10.1768 8.02697 10.8824 7.7357 12.2763C7.62629 12.8047 7.57694 13.3499 7.53697 13.8404L7.52486 13.99C7.48934 14.4309 7.45864 14.8118 7.39882 15.1321C7.32961 15.5026 7.23958 15.6752 7.1638 15.7461C7.13259 15.7753 7.04867 15.8463 6.74686 15.7705C6.24477 15.5755 5.85236 15.0774 5.57869 14.4023C5.3054 13.7282 5.18984 12.9692 5.18531 12.4335L5.18526 12.4302C5.17988 12.0695 5.15478 11.7377 5.10612 11.4239C4.94714 10.3987 4.54524 9.62743 3.88193 8.70671C3.60741 8.32 3.51655 7.71481 3.53497 7.19622C3.56848 6.3303 3.97643 5.7202 4.5132 5.13631Z" fill="#212121"/>
</svg>

<svg xmlns="http://www.w3.org/2000/svg" width="20" height="20"><path d="M12.935 5.598a.5.5 0 0 0 0 1c.291 0 .538.086.718.246.177.157.334.423.374.869a.5.5 0 1 0 .996-.09c-.06-.654-.307-1.173-.706-1.527-.395-.35-.893-.498-1.382-.498ZM8.94 3.928c-.936-.756-1.975-.917-2.906-.735A4.259 4.259 0 0 0 3.777 4.46c-.603.656-1.195 1.486-1.241 2.7-.022.602.067 1.475.532 2.129l.002.002c.613.851.922 1.475 1.048 2.287.04.26.062.543.067.867a6.69 6.69 0 0 0 .467 2.334c.322.795.873 1.608 1.77 1.939l.022.008.023.006c.524.14 1.012.09 1.38-.255.324-.303.459-.754.535-1.16.07-.376.105-.812.14-1.241l.012-.153c.04-.491.085-.98.18-1.442.267-1.273.648-1.497.825-1.55.491-.127.779-.041.97.098.278.202.49.615.637 1.224.143.593.2 1.264.251 1.877.072.866.255 1.654.603 2.158.181.262.438.49.785.565.35.075.69-.03.99-.224 1.104-.704 1.743-2.167 1.918-4.105.08-.871.168-1.294.297-1.628.1-.26.224-.47.418-.802a39.229 39.229 0 0 0 .364-.632c.244-.436.644-1.23.69-2.16.048-.966-.29-2.033-1.431-2.961-1.09-.886-2.106-1.207-3.013-1.158-.899.05-1.617.458-2.128.896l-.013.01-.012.013c-.5.49-.73.577-.879.57-.168-.006-.442-.137-1.006-.705l-.019-.02-.021-.017ZM4.513 5.137a3.258 3.258 0 0 1 1.713-.961c.663-.13 1.386-.024 2.064.515.54.542 1.06.956 1.654.981.616.026 1.122-.37 1.609-.844.397-.337.91-.613 1.52-.646.607-.033 1.386.17 2.327.935.888.722 1.096 1.48 1.063 2.136-.034.691-.338 1.317-.564 1.722l-.115.204-.206.354c-.211.359-.389.661-.52 1.002-.18.467-.28 1.003-.36 1.899-.165 1.82-.746 2.897-1.461 3.353l-.004.002c-.154.1-.225.09-.239.086-.018-.004-.08-.025-.171-.156-.194-.28-.361-.848-.43-1.672v-.012c-.05-.596-.111-1.34-.274-2.016-.16-.665-.444-1.379-1.021-1.799-.486-.353-1.1-.443-1.82-.255l-.011.003c-.726.21-1.24.915-1.531 2.31-.11.528-.16 1.073-.199 1.563l-.012.15c-.036.44-.066.822-.126 1.142-.07.37-.16.543-.235.614-.031.03-.115.1-.417.024-.502-.194-.895-.693-1.168-1.368a5.7 5.7 0 0 1-.394-1.968v-.004a7.255 7.255 0 0 0-.079-1.006c-.159-1.025-.56-1.797-1.224-2.717-.275-.387-.365-.992-.347-1.51.033-.867.441-1.477.978-2.06Z"/></svg>
